share/icons/Flat-Remix-Blue-Dark/panel/gpmdp-tray.svg

<svg xmlns="http://www.w3.org/2000/svg" width="24" height="24" version="1.1">
 <defs>
  <style id="current-color-scheme" type="text/css">
   .ColorScheme-Text { color:#ffffff; } .ColorScheme-Highlight { color:#367bf0; }
  </style>
 </defs>
 <path style="fill:currentColor" class="ColorScheme-Text" d="m 15.000147,12.000259 a 3,3 0 0 1 -3,3 3,3 0 0 1 -3,-3 3,3 0 0 1 3,-2.9999999 3,3 0 0 1 3,2.9999999 z M 5.8321786,4.0002593 c -0.2105737,0.00455 -0.393835,0.080379 -0.53125,0.2167969 -0.1952,0.191 -0.3007812,0.5002006 -0.3007812,0.9003906 l 0,13.7597652 c 0,0.40016 0.1145814,0.709411 0.3007812,0.900391 0.28372,0.28193 0.7270619,0.307932 1.2324219,0.0078 l 3.5878905,-2.091785 7.763672,-4.523437 a 6,6 0 0 0 0.08594,-0.585937 6,6 0 0 1 -0.08594,0.585937 l 0.476562,-0.277344 c 0.85117,-0.49111 0.85117,-1.290815 0,-1.791015 l -0.478516,-0.279297 c -0.54756,-2.7493574 -2.972238,-4.8222657 -5.882812,-4.8222657 -0.65436,0 -1.28424,0.106345 -1.873047,0.3007812 L 6.5333505,4.2072906 C 6.2806605,4.0617755 6.0427525,3.9957112 5.8321786,4.0002593 Z m 3.6582032,2.5566406 c -0.063644,0.029542 -0.125087,0.062062 -0.1875,0.09375 0.062375,-0.031654 0.1238917,-0.064235 0.1875,-0.09375 z m -0.6074219,0.328125 c -0.071257,0.043706 -0.1416758,0.088212 -0.2109375,0.1347656 0.069334,-0.046571 0.139603,-0.091049 0.2109375,-0.1347656 z m 3.1171871,0.1152344 c 2.773606,0 5,2.2266828 5,4.9999997 2.5e-5,0.18825 -0.03354,0.373712 -0.05469,0.560547 l -6.896482,4.015625 C 9.9207114,16.520876 9.7874779,16.476582 9.6642099,16.410415 l -0.021484,-0.01172 -0.023437,-0.01172 c -0.018751,-0.0089 -0.015315,-0.0025 -0.033203,-0.0098 -0.011032,-0.0088 -0.039139,-0.03097 -0.1542969,-0.09961 l -0.00195,0 C 9.355402,16.233485 9.2811849,16.186775 9.2091359,16.138893 l -0.00781,-0.0059 c -0.08764,-0.05976 -0.1665977,-0.116865 -0.2402344,-0.173828 l -0.00195,-0.002 C 8.8809583,15.896298 8.8050186,15.833417 8.7306162,15.767837 l -0.00195,0 C 8.627414,15.67883 8.5578255,15.620659 8.5216318,15.586197 l -0.00195,-0.002 -0.00195,-0.002 -0.00977,-0.01172 -0.013672,-0.01367 C 8.3753493,15.439942 8.2630413,15.318063 8.1563974,15.189712 c -0.037439,-0.04504 -0.088765,-0.114087 -0.15625,-0.205078 l -0.00195,-0.0039 -0.00195,-0.002 c -0.06382,-0.08453 -0.125298,-0.17123 -0.1836,-0.259725 l -0.00195,-0.0039 C 7.757472,14.633177 7.708342,14.555155 7.6642099,14.478775 l -0.00391,-0.0078 c -0.050824,-0.09094 -0.09752,-0.181484 -0.1425744,-0.275404 l -0.00195,-0.0039 -0.00195,-0.0039 c -0.056889,-0.115998 -0.09754,-0.192712 -0.1152406,-0.234387 l 0,-0.0019 C 7.328518,13.783429 7.2663337,13.612393 7.2149912,13.437759 l 0,-0.0039 0,-0.002 c -0.010058,-0.03362 -0.027876,-0.102872 -0.054688,-0.208984 -0.032985,-0.13066 -0.059706,-0.263586 -0.082031,-0.396484 -0.01586,-0.09472 -0.028763,-0.16606 -0.035156,-0.21875 l 0,-0.0039 0,-0.0059 c -0.026085,-0.19872 -0.040906,-0.397233 -0.042969,-0.597652 0.00183,-0.116593 0.0076,-0.233426 0.017578,-0.349609 l 0,-0.0078 0.00195,-0.0059 c 0.00742,-0.103539 0.018032,-0.211356 0.033203,-0.322266 l 0,-0.002 0.00195,0 c 0.00619,-0.04658 0.012026,-0.09424 0.019531,-0.140625 l 0,-0.0039 c 0.021451,-0.128216 0.047982,-0.253205 0.078125,-0.375 0.00638,-0.02425 0.012785,-0.04812 0.019531,-0.07227 l 0.00195,-0.0059 0.00195,-0.0059 c 0.037378,-0.139908 0.079066,-0.275718 0.1269666,-0.408063 l 0,-0.002 c 4.834e-4,-0.0013 0.00147,-0.0026 0.00195,-0.0039 0.00414,-0.01113 0.00945,-0.0221 0.013672,-0.0332 l 0,-0.0039 0.00195,-0.002 C 7.3729278,10.115325 7.429814,9.9781961 7.494288,9.8438481 l 0.00391,-0.0059 0,-0.0019 c 0.00567,-0.01144 0.011822,-0.0218 0.017578,-0.0332 l 0.00195,-0.0039 0.00195,-0.0039 c 0.063681,-0.128915 0.1337284,-0.256657 0.208987,-0.380854 0.01287,-0.02126 0.025876,-0.04143 0.039063,-0.0625 0.085306,-0.135887 0.1721693,-0.264576 0.2656245,-0.386591 0.1019464,-0.1329847 0.2063829,-0.255397 0.3144531,-0.3710938 l 0.00391,-0.00391 0.00977,-0.00977 c 0.914875,-0.9726409 2.1980384,-1.58007 3.6386634,-1.58007 z M 8.3087412,7.2854155 c -0.061573,0.048414 -0.1239804,0.095759 -0.1835938,0.1464844 0.059715,-0.050802 0.121914,-0.09801 0.1835938,-0.1464844 z m 9.6601558,4.1054685 c 0.0206,0.200236 0.03125,0.403597 0.03125,0.609375 0,-0.20579 -0.01102,-0.408917 -0.03125,-0.609375 z M 6.0001474,12.000259 a 6,6 0 0 0 0.021484,0.378906 6,6 0 0 1 -0.021484,-0.378906 z m 0.2558594,1.71875 a 6,6 0 0 0 0.1015625,0.289062 6,6 0 0 1 -0.1015625,-0.289062 z m 2.9355468,3.572266 a 6,6 0 0 0 0.4511719,0.214843 6,6 0 0 1 -0.4511719,-0.214843 z"/>
</svg>

<svg xmlns="http://www.w3.org/2000/svg" width="24" height="24" version="1.1">
 <defs>
  <style id="current-color-scheme" type="text/css">
   .ColorScheme-Text { color:#ffffff; } .ColorScheme-Highlight { color:#367bf0; }
  </style>
 </defs>
 <path style="fill:currentColor" class="ColorScheme-Text" d="M 15,12 C 15,13.657 13.657,15 12,15 10.343,15 9,13.657 9,12 9,10.343 10.343,9 12,9 13.657,9 15,10.343 15,12 Z M 5.8322,4.0002 C 5.6216,4.0049 5.4383,4.0807 5.3009,4.2172 5.1057,4.4082 5,4.7174 5,5.1175 V 18.877 C 5,19.277 5.1147,19.587 5.3,19.778 5.5846,20.06 6.028,20.086 6.5334,19.785 L 18.361,12.893 C 19.213,12.402 19.213,11.602 18.361,11.102 L 17.883,10.823 C 17.335,8.0733 14.911,6.0002 12,6.0002 11.346,6.0002 10.716,6.1067 10.127,6.3002 L 6.5334,4.2074 C 6.2807,4.0619 6.0428,3.9958 5.8322,4.0002 Z M 12,7.0002 C 14.774,7.0002 17,9.227 17,12 17,12.189 16.967,12.374 16.945,12.561 L 10.049,16.576 C 9.3721,16.395 7,14.893 7,12 7,9.15 9.3995,7.0002 12,7.0002 Z"/>
</svg>
